X:9
T:Abbey, The
M:4/4
R:reel
K:Ador
|: B | A3B A2GE | A2GA BddB | A3B AGEF | G3A Bdd :|
| g | egg2 a2ba | gabg aged | egg2 a2ga | bgaf gedg |
egg2 a2bg | agbg aged | egg2 a2ga | bgaf ged |
~A3B A2GE|A2GA BGDB|~A3B AGEF|G2GA BGDB|
~A3B A2GE|A2GA BGDB|A2dB AGEF|G2GA Bdd2||
eg~g2 a2ba|gabg aged|eg~g2 a2ga|bgef ged2|
eg~g2 ag~g2|a2bg aged|eg~g2 a2ga|bgea gedB|
~A3B A2GE|A2GA BedB|~A3B AGEF|1 G2GA BedB:|2 G2GA Bddg||
eg~g2 a2ba|gabg aged|eg~g2 a2ga|bgaf gedg|
eg~g2 agbg|agbg aged|eggb a2ga|bgaf gedB||
